X:1
T:Melchior Franck
T:Christ unser Herr zum Jordan kam
%%score [ 1 2 3 4 ]
L:1/8
Q:1/4=180
M:4/4
K:C
V:1 treble nm="Cantus"
V:2 treble nm="Altus"
V:3 treble nm="Tenor"
V:4 treble nm="Bassus"
V:1
"^;" x8 | z8 z4 D4 | F4 G4 A4 G4 | c4 B4 A4 z2 G2 | c4 B4 A4 G4 | F8 E8 | D4 A,4 C2 D2 E8 | %7
w: |Christ|un- ser Herr zum|Jor- dan kam, nach|sei- nes Va- ters|Wil- *|len, Christ un- ser Herr|
w: |||||||
 D4 G4 F4 E4 | A4 B2 c2 d4 B2 e4 | d4 c4 x2- x6 | x2 A4 ^G2 A8 x4 | z8 z4 D4 x4 | F4 G4 A4 G4 x2 | %13
w: zum Jor- dan kam,|nach sei- nes Va- ters Wil||* * len.|Von|Sanct Jo- hans die|
w: ||||||
 c6 B2 A4 z2 d2 x12 | ^c2 d4 !courtesy!^c2 d8 | z8 z4 z2 G2 | c6 B2 A4 G4 | F4 E4 D8 x2 | z16 | %19
w: Tauf- fe nam, die|Tauf * fe nam,|sein|Werck und Ampt zu'r-|fül- * len,||
w: ||||||
 z16 | z4 G4 c6 B2 | A4 G4 F8 x8 | E12 D4 | z16 | z8 z4 G4 x4 | c4 B4 A6 G2 | F4 E4 D8 x10 | %27
w: |||||sein|Werck und Ampt zu'r-|fül- * len,|
w: |sein Werck und|Ampt zu'r- fül-|* len,|||||
 z4 D4 G4 G4 | E4 A4 A4 G4 x4 | A4 A4 ^F4 !courtesy!^F4 x2 | G4 E4 G4"^(  )" F4 x2 | %31
w: Da wolt er|stiff- ten uns ein|Bad, * * *||
w: ||* da wolt er|stiff- ten uns ein|
 E6 D2 ^C2 D4 !courtesy!^C2 | D4 z2 D2 G4 G4 | E4 A4 A4 G4 | A2 A4 d3 c c4 B2 | c4 A4 c4 _B4 | %36
w: |* Da wolt er|stiff- ten uns ein|Bad, * * * * *||
w: Bad * * * *|||* da wolt er stiff- ten|uns ein Bad, *|
 A4 A8 d8 | d4 e4 c4 d6 x2 | c2 B8 x6 | A12 A4 | d4 d4 e4 c4 | d12 c4 x4 | B2 A2 A8 ^G4 | A16 | %44
w: * zu wa-|schen uns von Sün-||den, *|||||
w: |||* zu|wa- schen uns von|sün- *||den,|
 z4 B4 c12 | B4 A4 G4 A4 x2 | F4 E8 z16 | z16 x2 | z4 z2 A4 A4 G4 | F4 E2 FE E4 D2 E4 | %50
w: er- seuf|fen auch den bit-|tern Tod,||||
w: ||||er- seuf- fen|auch den bit * * tern Tod|
 z2 c4 d4 c4 _B4 | A2 _B4 A8 G4 | E8 x8 | D4 _B4 A16 | z2 D2 F2 G2 A4 F4 x4 | G12 F4 | E8 x10 | %57
w: er- seuf- fen auch|den bit- tern Tod,|den|bit- tern Tod,|durch sein selbst Blut und|Wun- *||
w: |||||||
 D8 z8 x4 | z16 x4 | z4 G4 B4 c4 | d12 B4 | c12 B4 | A8 G8 x4 | G4 d4 e4 d2 c2 x4 | %64
w: den,||||||durch sein selbst * *|
w: ||durch sein selbst|Blut und|Wun- *|* den,||
 B4 c4 A6 G2 x4 | A2 B2 c2 A2 B2 c2 x4- | x4 ^c4 d6"^(  )" =c2 | B8 A8 x4 | z8 z4 A8 | c4 d8 e4 | %70
w: * Blut und *||Wun * *|* den,|||
w: ||||durch|sein selbst Blut|
 c4 x8- x8 | d4 c4 B8 | A2 A4 c2 d4 e4 x4 | ^c4 d6 cB !courtesy!^c4 | d4 d4 e4 d2"^(  )" c2 x2 | %75
w: ||* durch sein selbst Blut|und Wun * * *|den, * * * *|
w: und Wun-||den, * * * *||* durch sein selbst *|
 d4 A4 _B4 A8 | G4 A8 A8 x4 | z4 B8 B4 x4 | B4 c4 x20 | A4 B8 A8 | ^G4 A4 ^F4 F4 | %81
w: ||es galt|ein new-|es Le- *|* ben, * *|
w: Blut und Wun *|* * den,||||* * es galt|
 ^F4 G2 A2 B4 c4 | d6 ^cB c4 d8 | G8 z16 | z16 | z8 z4 d4 | d4 d4 e12 x4 | d4 c8 B8 x4 | A8 x12 | %89
w: ||||es|galt ein new|es Le- *|ben,|
w: ein new \- es Le-||ben,||||||
 z4 d4 d2 d2 e8 | d4 c4 B4 A4 | A6 ^G^F G4 c4 | B8 A8 | ^G4 A4 A4 f4 x4 | e4 d8"^-" x16 | x24 |] %96
w: ||ein * * * new-|es Le-|* ben, * *|||
w: es galt ein new|es Le- * ben,|||* * ein new-|es Le-||
 x16 |] %97
w: |
w: |
V:2
"^;" x8 | z16 | z16 | z16 | z16 | z16 | z16 x4 | A,8 C4 D4 | E4 D4 G4 F4 x2 | E4 z2 D2 G4 F4 | %10
w: |||||||Christ un- ser|Herr zum Jor- dan|kam, nach sei- nes|
w: ||||||||||
 E4 D4 C8 x4 | B,8 A,12 | z4 z2 A,2 C6 D2 x2 | E8 D2 G4 F2 x12 | E4 z2 D2 G2 F2 x4 | E4 D4 C4 B,4 | %16
w: Va- ters Wil-|* len.|von Sanct Jo-|hans die Tauf- fe|nam, sein Werck und|Ampt zu'r- fül- *|
w: ||||||
 A,4 E4 E6 D2 | C2 D4 ^C2 D2 D2 G6 | F2 E2 D2 C4 B,4 x2 | A,2 D2 G8 F4 | E6 D2 E2 F2 GFDE | %21
w: len, zu'r- fül- *|* * * len, sein Werck|und Ampt zu'r- fül- *|len, * * *|Ampt zu'r- fül * * * * *|
w: |||* sein Werck und||
 F4 E6 D2 D8 x4 | C2 B,2 A,6 B,2 C4 | B,4 z4 D4 x4 | D6 A,2 B,4 E8 | E4 A,B,CA, B,2 C2 D4 | %26
w: ||len, sein|Werck und Ampt zu|er fül * * * * * *|
w: |||||
 A,2 A2 A2 G3 ^F/E/ !courtesy!^F2 G4 x10 | G,8 C4 x4 | C4 A,4 D4 D8 | ^C4 D4 A,4 B,6 | %30
w: len, zu er- fül- * * * len,|Da wolt|er stiff- ten uns|ein Bad, * *|
w: |||* * da wolt|
 B,2 C4 D4 C4 B,4 | A,12 A,4 | D4 B,4 x8 | G4 F4 E6 D2 | C4 F4 E4 D4 | G4 E4 E2 F2 G2 D2 | %36
w: |* da|wolt er|stiff- ten uns *|* ein Bad, *||
w: er stiff- ten uns ein|Bad, *|||* * * da|wolt er stiff * * ten|
 F4 E4 F8 x4 | D4 G4 G4 A4 x4 | ^F8 G6"^(  )" =F2 | E2 D2 E4 D8 | z4 D4 G4 G4 | A4 ^F4 G12 | %42
w: |zu wa- schen uns|von Sün- *|* * * den,|||
w: uns ein Bad,||||zu wa- schen|uns von Sün-|
"^(  )" F4 E12 | D4 F4 E4 x4 | D8 C4 z2 E4 x2 | F4 E4 D4 C2 C4 | B,4 C4 E4 F12 x4 | %47
w: ||* * er-|seuf- fen auch den bit-|tern Tod, * *|
w: ||* den, *||* * er- seuf-|
 E4 D4 C4 D4 x2 | _B,4 x14 | A,4 z2 C2 E4 D4 x2 | C4 B,4 C4 A,4 x2 | B,4 z2 G2 A4 G4 x2 | %52
w: ||* er- seuf- fen|auch den bit- tern|Tod, * * *|
w: fen auch den bit-|tern|Tod, * * *||* er- seuf- fen|
 F4 E4 F6 E2 | D4 D4 C2 A,2 C4 x8 | D4 E4 ^C4 D8 |"^(  )" C4 _B,8 A,4 | C4 D4"^(  )" B,4 D4 x2 | %57
w: |* * * durch sein|selbst Blut und Wun-|* * den,||
w: auch den bit- *|* tern Tod, * *|||durch sein selbst Blut|
 D4 C6 B,2 x8 | A,4 D4 E2 D2 C2 _B,2 x4 | A,2 G,2 G,8 ^F,4 | G,4 G,4 G,4 A,4 | B,4 z2 D2 F4 G4 | %62
w: |* und Wun * * *||den, durch sein selbst|Blut, * * *|
w: und Wun *|den, * * * * *|||* durch sein selbst|
 A4 F4 G12 | F4 E8 D4 x4 | G6 ^FE F4 G4 x4 | E4 F12 | E4 D6 E2 x4 | F4 E4 F2 G2 A8 | G4 F8 E4 x4 | %69
w: * und Wun-|* * den,|durch * * * sein|selbst Blut|und Wun- *||* * den,|
w: Blut * *|||||||
 E8 D8 | C4 F8 E8 | z2 D2 F2 G2 x8 | A8 E4 G6 x2 | F2 E4 D4 z4 z2 | D2 F4 G8 A4 | F4 x8- x8 | %76
w: und Wun-|* * den,||\_\_\_\_\_\_\_\_ * *||durch sein selbst Blut|und Wun-|
w: ||und * *|* Wun *|* * den|||
 x4 F4 E8 x8 | D4 D4 ^C4 D8 | ^C4 D8 z16 | z16 x4 | z16 | z8 z4 G4 | G4 G4 A6 G2 x4 | F8 E8 x8 | %84
w: |den, und Wun *|* den,|||es|galt ein new- es|Le- *|
w: ||||||||
 D4 D4 x8- | x4 B,4 A,8 | G,2 G2 G2 G2 A4 G4 x8 | F8 E4 G4 x8 | G4 G4 A12 | G4 F6 E2 x8 | %90
w: ben, ein new-|es Le-|ben, * * * * *|* * es|galt ein new-|es Le- *|
w: ||* es galt ein new- es|Le- ben, *|||
 D8 D4 z2 G2 | E4 F4 E4 B,4 | D2 CB, A,4 B,4 B,4 | C4 D4 E8 x4 | E4 E4 C4 C4 x12 | D4 E4 F8 x8 |] %96
w: * ben, *||* * * * * ein|new- es Le-|ben, es galt ein|new- es Le-|
w: * * es|galt ein new- es|Le * * * ben, *||||
"^-" x16 |] %97
w: |
w: |
V:3
"^;" x8 | D,8 F,4 G,4 | A,4 G,4 C4 B,4 | A,4 z2 G,2 C4 B,4 | A,4 G,4 F,4 E,4 | D,4 D6 ^CB, C4 | %6
w: |Christ un- ser|Herr zum Jor- dan|kam, nach sei- nes|Va- ters wil- *|len, nach * * *|
w: ||||||
 D4 F4 E2 D2 C2 B,2 x4 | A,2 G,2 F,4 G,4 A,4 | B,2 C2 D4 G,2 G,2 D2 A,2 x2 | B,4 A,4 G,4 A,2 B,2 | %10
w: sei- nes Va * * *|* * * ters Wil|* * * len, * * *||
w: ||* * * * nach sei- nes|Va- ters Wil * *|
 C2 A,2 B,4 x12- | x4 z8 z4 x4 | D,4 F,4 G,4 A,4 x2 | G,4 C4 B,4 A,8 x8 | z4 G,4 x8 | %15
w: ||Von Sanct Jo- hans|die Tau- fe nam,|sein|
w: * * * len.|||||
 C4 B,4 A,4 G,4 | F,4 E,4 z8 | z16 x2 | E4 G4 F2 E4 x2- | x2 A,2 B,2 C2 B,2 A,G, A,2 B,2 | %20
w: Werck und Ampt zu'r-|fül- len,||sein Werck und Ampt zu\_|er- fül * * * * * *|
w: |||||
 C6 B,2 A,4 G,4 | F,4 G,4 A,16 | z4 A,8 G,4 | _B,8 x8 | A,8 z2 G,2 C2 B,4 x2 | %25
w: |* * len,|zu er-|fül-|len, sein Werck und|
w: |||||
 A,4 G,2 F,4 E,4 D,2 | D4 C3 B, B,A,/G,/ A,4 B,12 | x4- x12 | x2 F,2 E,2 D,C, D,6 E,2 x4 | %29
w: Ampt zu er- fül- len,|||fül * * * * *|
w: |sein Werck und Ampt * * * zu|er-||
 F,4 E,4 z4 D,4 x2 | G,4 G,4 E,4 A,4 x2 | A,4 ^G,4 A,2"^(  )" =G,F, E,2 E,2 | ^F,4 F,4 G,6 A,2 | %33
w: * len, Da|wol er stiff- ten|uns ein Bad, * * * *||
w: ||* * * * * * da|wolt er stiff- ten|
 B,2 C2 D2 A,2 C4 B,4 | A,8 z4 G,4 | C4 C4 A,4 D4 | D4 ^C4 D8 x4 | z8 z4 A,8 | D4 D4 E4 x4 | %39
w: |* Da|wolt er stiff- ten|uns ein Bad,|zu|wa- schen uns|
w: uns * * * * ein|Bad, *|||||
 ^C8 D6"^(  )" =C2 | B,4 A,4 z2 G,2 G,4 | F,2 A,2 D2 D2 E6 C2 x4 | D6 C2 B,8 | %43
w: von Sün- *|* den, von Sün-|den, zu wa- schen uns von|Sün- * *|
w: ||||
 A,4 F,4 D,4 E,2 x2- | x2 ^G,^F, G,4 A,4 E,4 x4 | A,4 G,4 F,4 E,4 x2 | F,4 D,4 C,8 x12 | %47
w: den, von Sün- * *|* * * den, er-|seuf- fen auch den|bit- tern Tod,|
w: ||||
 z4 A,6 _B,4 A,4 | G,4 F,2 F,4 E,4 x4 | F,4 z2 A,2 C4 B,4 x2 | A,4 G,4 A,4 F,4 x2 | E,8 z8 x2 | %52
w: ||* er- seuf- fen|auch den bit- tern|Tod,|
w: er- seuf- fen|auch den bit- tern|Tod, * * *|||
 z8 z4 D,4 | F,4 G,4 A,8 x8 | F,4 G,8 F,4 x4 | E,8 D,4 D,4 | F,2 G,2 A,4 _B,4 G,6 | %57
w: durch|sein selbst Blut|und Wun- *|* den, *||
w: |||* * durch|sein selbst Blut und Wun-|
 F,E, D,4 G,4 A,4 x6 | F,4 G,6 F,2 E,2 D,2 x4 | E,4 D,4 C,8 | D,4 D4 E6 E2 | D4 A,4 B,8 | %62
w: * * * durch sein|selbst Blut * * *|* und Wun-|den, * * *||
w: * * den, * *|||* durch sein selbst|Blut und Wun-|
 A,8 z2 G,2 B,4 x4 | C4 D4 B,4 C8 | B,4 A,8 G,4 x4 | A,8 D,2 E,2 F,2 G,2 | A,8 ^G,4 x4 | %67
w: * durch sein|selbst Blut und Wun-|* den, und|Wun- * * * *||
w: den, * *|||||
 A,8 z4 D,4 x4 | F,4 G,4 A,4 F,4 x4 | G,12 F,4 | E,8 D,4 D4 x4 | C4 A,4 _B,8 | %72
w: den, *|||* * und|Wun * *|
w: * und|Wun * * *||* den, *||
 A,2 A,2 C2 D2 E4 D4 x4 | ^C2 D4"^(  )" =CB, A,4 B,4 | A,8 z8 x2 | z8 z4 x4- x4 | %76
w: den, durch sein selbst Blut und|Wun * * * * *|den,||
w: |||durch\_\_|
 x4 F,4 G,4 A,4 x8 | F,4 G,8 F,4 x4 | E,8 D,4 D4 x12 | D4 D4 E8 x4 | D8 C8 | B,8 A,2 A,2 A,4 | %82
w: ||* * es|galt ein new-|es Le-|* ben, * *|
w: sein selbst Blut|und Wun- *|* den, *|||* * es galt|
 A,4 B,6 A,2 G,2 F,2 x4 | E,4 D,4 E,4 E8 x4 | D8 C8 | B,4 C4 E4 x4 | F2 E2 E8 D8 x4 | %87
w: |||* * es|galt ein new- es|
w: ein new- * * *|* * es Le||* ben, *||
 C8 B,2 A,2 B,8 x4 | C4 C4 C4 B,4 x4 | A,2 G,2 F,2 E,2 D,4 E,4 x4 | F,2 G,2 A,B,CA, x8 | %91
w: Le- * * *|ben, * * *|||
w: |* es galt ein|new * * * * es|Le * * * * *|
 B,2 A,2 G,2 A,2 B,2 A,2 B,4 | C8 z4 D4 | D4 D4 E12 | D4 C8 B,8 x8 |"^-" x8- x16 |] x16 |] %97
w: |* es|galt ein new-|es Le- *|ben.||
w: |ben, *|||||
V:4
"^;" x8 | z16 | z16 | z16 | z16 | z16 | z8 A,,8 x4 | C,4 D,4 E,4 D,4 | G,4 F,4 E,4 z2 D,2 x2 | %9
w: ||||||Christ|un- ser Herr zum|Jor- dan kam, nach|
w: |||||||||
 G,4 F,4 E,4 D,4 | C,4 B,,4 A,,4 A,6 x2 | %11
w: sei- nes Va- ters|Wil- * len, nach|
w: ||
 ^G,^F, !courtesy!^G,4 A,2"^(     )" =G,2 =F,2 E,2 D,2 x4 | C,2 _B,,4 A,,2 F,4 E,2 F,4 | %13
w: * * * sei * * * *|* * nes Va- ters Wil-|
w: ||
 C,4 z8 z16 | z4 z2 D,2 F,4 G,4 | A,4 G,4 C4 B,4 | A,8 z4 G,4 | C6 B,2 A,4 G,4 x2 | F,4 E,4 D,8 | %19
w: len,|Von Sanct Jo-|hans die Tau- fe|nam, sein|Werck und Ampt zu|er- fül- len,|
w: ||||||
 z16 | z16 | z4 A,,4 C,4 D,4 x8 | E,8 D,4 x4- | x4 F,4 x8- | x6 x2 z8 x4 | z8 D,8 | %26
w: ||von Sanct Jo-|hans die Tau-|fe nam,||sein|
w: |||||||
 G,6 F,2 E,6 D,2 x10 | C,8 B,,8 | A,,4 A,,4 D,4 D,4 x4 | B,,4 E,4 E,4 D,4 x2 | E,8 z4 A,,4 x2 | %31
w: Werck und Ampt zu'r-|fül- *|len, Da wolt er|stiff- ten uns ein|Bad, *|
w: ||||* da|
 D,4 D,4 B,,4 E,4 | E,4 D,4 E,8 | z4 D,4 G,4 G,4 | E,4 A,4 A,4 G,4 | A,8 z8 | z16 x4 | %37
w: ||da wolt er|stiff- ten uns ein|Bad,||
w: wolt er stiff- ten|uns ein Bad,|||||
 D,8 G,4 G,4 x4 | A,8 ^F,8 | G,4"^(  )" F,4 E,8 | D,8 G,,8 | D,4 D,4 E,8 x4 | ^C,4 D,8 =C,4 | %43
w: zu wa- schen|uns von|Sün * *|den, *|||
w: |||* zu|wa- schen uns|von Sün- *|
 B,,8 A,,8 | z16 x4 | z8 z4 C,4 x2 | D,12 C,4 x12 | _B,,4 A,,4 !courtesy!_B,,4 G,,4 x2 | %48
w: ||er-|seuf- fen|auch den bit- tern|
w: * den,|||||
 F,,8 z8 x2 | z16 x2 | z4 E,4 F,4 E,4 x2 | D,4 C,4 D,8 x2 | _B,,8 A,,4 A,,4 | _B,,4 G,,4 A,,16 | %54
w: Tod,||||* * den|bit- tern Tod,|
w: ||er- seuf- fen|auch den bit-|tern Tod, *||
 z8 z8 x4 | z4 G,,4 _B,,8 | C,8 x10 | D,4 _B,,4 C,12 | _B,,4 A,,8 G,,8 | z8 z4 F,4 | D,4 E,4 x8 | %61
w: |durch sein|selbst|Blut und Wun-|* * den,|||
w: |||||durch|sein selbst|
 A,,4 A,,4 E,6 D,2 | C,2 A,,2 D,4 G,,8 x4 | z4 G,,4 C,4 D,4 x4 | E,4 C,4 D,12 | C,4 B,,8 x4 | %66
w: ||durch sein selbst|Blut und Wun-||
w: Blut und Wun- *|* * * den||||
 A,,8 z4 F,4 | D,4 E,4 F,4 D,4 x4 | E,6 D,2 ^C,4 D,4 x4 | A,,8 z8 | z8 z4 D,4 x4 | F,8 G,8 | %72
w: den, *||||durch|sein selbst|
w: * durch|sein selbst Blut und|Wun * * *|den,|||
 A,8 ^F,4 G,8 | F,4 E,8 D,4 | D,4 C,4 B,,2 A,,2 x6 | B,,2 C,2 D,8 ^C,4 x4 | %76
w: Blut und Wun-|* * den,|||
w: ||durch sein selbst *|* * Blut und|
 D,2"^(  )" C,2 _B,,4 A,,16 | z4 G,8 G,4 x4 | G,4 A,4 x20 | %79
w: |Es galt|ein new-|
w: Wun * * den,|||
 ^F,4 G,2"^(  )" =F,2 E,2 D,2 C,2 B,,A,, x4 | D,4 E,4 A,,4 D,4 | D,4 D,4 E,6 D,2 | %82
w: es Le * * * * * *|ben, * * *||
w: |* es galt ein|new- es Le- *|
 C,4 B,,4 A,,8 x4 | z8 G,8 x8 | G,4 G,4 x8- | x4 G,4 F,8 | E,8 D,16 | z8 z16 | z16 x4 | %89
w: |Es|galt ein new-|es Le-|* ben,|||
w: * * ben|||||||
"^Bayerische Staatsbibliothek München, Musikabteilung, Signatur 4 Mus.pr 2714\nCopyright © 2011 by the Choral Public Domain Library (http://www.cpdl.org).\nEdition may be freely distributed, duplicated, performed, or recorded\nRevision 1.0, 2011-03-27 by Gerd Eichler" G,8 G,4 G,4 x4 | %90
w: |
w: Es galt ein|
 A,12 G,4 | F,8 E,8 | E,8 E,8 | E,4 E,4 F,12 | ^C,4 D,8"^-" x16 | x24 |] x16 |] %97
w: ||* Es|galt ein new-|es Le-|||
w: new- es|Le- *|ben, *|||||

